src/dsmComponents/Icons/settings-gear-24px.svg

<svg width="24" height="24" xmlns="http://www.w3.org/2000/svg" xmlns:xlink="http://www.w3.org/1999/xlink"><defs><path d="M19.95 7.8l1.65-3.15-2.1-2.1-3.15 1.65c-.45-.3-1.05-.45-1.65-.6L13.5 0h-3L9.3 3.45c-.45.15-1.05.3-1.5.6L4.65 2.4 2.4 4.65 4.05 7.8c-.3.45-.45 1.05-.6 1.5L0 10.5v3l3.45 1.2c.15.6.45 1.05.6 1.65L2.4 19.5l2.1 2.1 3.15-1.65c.45.3 1.05.45 1.65.6L10.5 24h3l1.2-3.45c.6-.15 1.05-.45 1.65-.6l3.15 1.65 2.1-2.1-1.65-3.15c.3-.45.45-1.05.6-1.65L24 13.5v-3l-3.45-1.2c-.15-.45-.3-1.05-.6-1.5zM12 16.5c-2.55 0-4.5-1.95-4.5-4.5S9.45 7.5 12 7.5s4.5 1.95 4.5 4.5-1.95 4.5-4.5 4.5z" id="settings-gear-24px_svg__a"/></defs><use fill="#737373" xlink:href="#settings-gear-24px_svg__a" fill-rule="evenodd"/></svg>

<?xml version="1.0" encoding="UTF-8"?>
<svg width="24px" height="24px" viewBox="0 0 24 24" version="1.1" xmlns="http://www.w3.org/2000/svg" xmlns:xlink="http://www.w3.org/1999/xlink">
    <!-- Generator: Sketch 59.1 (86144) - https://sketch.com -->
    <title>settings-gear-24px</title>
    <desc>Created with Sketch.</desc>
    <defs>
        <path d="M19.95,7.8 L21.6,4.65 L19.5,2.55 L16.35,4.2 C15.9,3.9 15.3,3.75 14.7,3.6 L13.5,0 L10.5,0 L9.3,3.45 C8.85,3.6 8.25,3.75 7.8,4.05 L4.65,2.4 L2.4,4.65 L4.05,7.8 C3.75,8.25 3.6,8.85 3.45,9.3 L0,10.5 L0,13.5 L3.45,14.7 C3.6,15.3 3.9,15.75 4.05,16.35 L2.4,19.5 L4.5,21.6 L7.65,19.95 C8.1,20.25 8.7,20.4 9.3,20.55 L10.5,24 L13.5,24 L14.7,20.55 C15.3,20.4 15.75,20.1 16.35,19.95 L19.5,21.6 L21.6,19.5 L19.95,16.35 C20.25,15.9 20.4,15.3 20.55,14.7 L24,13.5 L24,10.5 L20.55,9.3 C20.4,8.85 20.25,8.25 19.95,7.8 Z M12,16.5 C9.45,16.5 7.5,14.55 7.5,12 C7.5,9.45 9.45,7.5 12,7.5 C14.55,7.5 16.5,9.45 16.5,12 C16.5,14.55 14.55,16.5 12,16.5 Z" id="path-1"></path>
    </defs>
    <g id="Final" stroke="none" stroke-width="1" fill="none" fill-rule="evenodd">
        <g id="All-Nucleo-Icons" transform="translate(-608.000000, -5534.000000)">
            <g id="Solo/Nucleo/24px/settings-gear" transform="translate(608.000000, 5534.000000)">
                <g id="settings-gear">
                    <g id="Colour/Default-Colour">
                        <mask id="mask-2" fill="white">
                            <use xlink:href="#path-1"></use>
                        </mask>
                        <g id="Mask" fill-rule="nonzero"></g>
                        <g id="colour/neutral/chia" mask="url(#mask-2)" fill="#737373">
                            <g transform="translate(-20.000000, -20.000000)" id="Colour">
                                <rect x="0" y="0" width="64" height="64"></rect>
                            </g>
                        </g>
                    </g>
                </g>
            </g>
        </g>
    </g>
</svg>
